X:1
T:Finale - Act III
T:Finale - Act II
T:The Balkan Princess
T:Paul Rubens
C:Paul Rubens
%%score { ( 1 3 ) | 2 }
L:1/8
Q:1/4=90
M:4/4
K:C
V:1 treble nm="Piano" snm="Pno."
V:3 treble 
V:2 bass 
V:1
!p!"^Moderato" [Gceg]7/2 [^F^f]/ [Gceg]7/2 [cc']/ |"_cresc." [B=fgb]2 [Bfgb]2 [ABfa]4 | %2
 [FBf]7/2 [Ee]/ [FBf]7/2 [Bb]/ | [Acea]2 [Acea]2 [Gceg]4 | %4
!<(! [EGce]2 [ege']2 [dgd']2!<)! [cgc']2 | [Fcf]3 [Gg] [Aa]2 [Bb]2 | [DFGBd]3 [Ee] [Ff]2 [Gg]2 | %7
 [Ee]8 | [Gceg]7/2 [^F^f]/ [Gceg]7/2 [cc']/ | [B=fgb]2 [Bfgb]2 [ABfa]4 | %10
 [FBf]7/2 [Ee]/ [FBf]7/2 [Bb]/ | [Acea]2 [Acea]2 [Gceg]4 |!f! [EGce]2 [ege']2 [dgd']2 [cgc']2 | %13
 [FAcf]3 [Gg] [Aa]2 [cc']2 |"^rit." [Dd]3 [Ee] [Ff]2 [GBg]2 | %15
!ff! (!///-![gc'e']2 !fermata!e2) (!///-![gc'e']2 e2) | [egc'e'] z z2 z4 |] %17
V:2
 [C,,C,]2 [G,CE]2 [G,,,G,,]2 [G,CE]2 | [D,,D,]2 [G,B,DF]2 [G,,,G,,]2 [G,B,DF]2 | %2
 [D,,D,]2 [F,G,B,]2 [G,,,G,,]2 [F,G,B,]2 | [C,,C,]2 [E,G,C]2 [G,,,G,,]2 [E,G,C]2 | %4
 !arpeggio![C,,G,,E,]2 [CE]2 [G,D]2 [E,C]2 | [D,,D,]2 [F,G,B,]2 [G,,,G,,]2 [F,G,B,]2 | %6
 [G,,,G,,]2 [F,G,B,]2 [G,,,G,,]2 [F,G,B,]2 | [C,,G,,E,]2 [C,E,B,]2 [C,E,A,]2 [C,E,_A,]2 | %8
 [C,,C,]2 [G,CE]2 [G,,,G,,]2 [G,CE]2 | [D,,D,]2 [G,B,DF]2 [G,,,G,,]2 [G,B,DF]2 | %10
 [D,,D,]2 [F,G,B,]2 [G,,,G,,]2 [F,G,B,]2 | [C,,C,]2 [E,G,C]2 [G,,,G,,]2 [E,G,C]2 | %12
!ped! !arpeggio![C,,G,,E,]2 [CE]2 [G,D]2 [E,C]2!ped-up! |!ped! [D,,D,]2 [F,A,D]2 [A,DF]4!ped-up! | %14
!ped! [G,,,G,,]2 [F,G,B,]4 [G,B,F]2!ped-up! | %15
!ped! (!///-![C,,G,,]2 !fermata!C,2) (!///-![C,,G,,]2 C,2) | [C,,G,,C,]!ped-up! z z2 z4 |] %17
V:3
 x8 | x8 | x8 | x8 | x8 | x8 | x8 | z2 B2 A2 _A2 | x8 | x8 | x8 | x8 | x8 | x8 | x8 | x8 | x8 |] %17

